X:1
T:Admah, 88.88.88
T:Admah, 88.88.88
T:Lowell Mason, 1844
T:Public Domain Courtesy of the Cyber Hymnal™
C:Lowell Mason, 1844
Z:Public Domain
Z:Courtesy of the Cyber Hymnal™
%%score ( 1 2 ) ( 3 4 )
L:1/8
Q:1/4=115
M:2/2
K:G
V:1 treble 
V:2 treble 
V:3 bass 
V:4 bass 
V:1
 [DG]4 [DG]2 [DF]2 | (G3 A) [GB]2 [Gc]2 | [GB]2 [DA]2 (G2 F2) | [DG]4 (B2 c2) | [Gd]4 (e2 d2) | %5
 [Gd]4 G2 A2 | [GB]4 [Ac]2 [GB]2 | [FA]8 | [FA]4 [GB]2 [Ac]2 | [Bd]4 [Ac]2 [GB]2 x4 | %10
 [GB]2 [FA]2 [Ac]2 [GB]2 x4 | [GB]4 [FA]2 [FA]2 | [GB]4 [Ge]4 | [Gd]6 [GB]2 | [FA]4 [EA]4 | [FA]8 | %16
 [FA]4 [GB]2 [Ac]2 | [Bd]4 [Ac]2 [GB]2 x4 | [GB]2 [FA]2 [Ac]2 [GB]2 x4 | [GB]4 [FA]2 [Fd]2 | %20
 [Gd]4 [DF]4 | [DG]2 [Fc]2 [GB]2 [EA]2 | [DG]4 [DF]4 | [DG]8 |] %24
V:2
 x8 | D4 x4 | x4 D4 | x4 G4 | x4 G4 | x4 G4 | x8 | x8 | x8 | x12 | x12 | x8 | x8 | x8 | x8 | x8 | %16
 x8 | x12 | x12 | x8 | x8 | x8 | x8 | x8 |] %24
V:3
 [G,B,]4 [G,B,]2 [A,C]2 | (B,3 C) D2 [C,E]2 | (D2 C2) (B,2 A,2) | [G,,B,]4 (G,2 A,2) | %4
 [G,B,]4 (C2 B,2) | [G,B,]4 B,2 C2 | [G,D]4 D4 | [D,D]8 | [CD]4 [B,D]2 [A,D]2 | [G,D]4 D4 x4 | %10
 D4 D4 x4 | [D,D]6 [D,D]2 | [G,D]4 [G,C]4 | [G,B,]6 [G,D]2 | [A,D]4 [A,,^C]4 | [D,D]8 | %16
 [CD]4 [B,D]2 [A,D]2 | [G,D]4 D4 x4 | D4 D4 x4 | [D,D]6 [D,A,]2 | [G,B,]4 [A,C]4 | D6 [C,C]2 | %22
 [D,B,]4 [D,A,]4 | [G,,B,]8 |] %24
V:4
 x8 | G,6 x2 | D,4 D,4 | x4 G,4 | x4 G,4 | x4 G,4 | x4 F,2 G,2 | x8 | D,8 | D,8 F,2 G,2 | %10
 D,8 (F,2 G,2) | x8 | x8 | x8 | x8 | x8 | D,8 | D,8 F,2 G,2 | D,8 (F,2 G,2) | x8 | x8 | %21
 (B,2 A,2) G,2 x2 | x8 | x8 |] %24

